app/images/reticle.svg

<?xml version="1.0" encoding="UTF-8" standalone="no"?>
<!-- Created with Inkscape (http://www.inkscape.org/) -->

<svg
   xmlns:dc="http://purl.org/dc/elements/1.1/"
   xmlns:cc="http://creativecommons.org/ns#"
   xmlns:rdf="http://www.w3.org/1999/02/22-rdf-syntax-ns#"
   xmlns:svg="http://www.w3.org/2000/svg"
   xmlns="http://www.w3.org/2000/svg"
   xmlns:sodipodi="http://sodipodi.sourceforge.net/DTD/sodipodi-0.dtd"
   xmlns:inkscape="http://www.inkscape.org/namespaces/inkscape"
   width="100"
   height="100"
   id="svg2"
   version="1.1"
   inkscape:version="0.48.4 r9939"
   inkscape:export-filename="C:\Users\antoinep\Desktop\mobileMaster\app\images\reticle-icon.png"
   inkscape:export-xdpi="25.200001"
   inkscape:export-ydpi="25.200001"
   sodipodi:docname="reticle.svg">
  <defs
     id="defs4">
    <inkscape:path-effect
       effect="spiro"
       id="path-effect4632"
       is_visible="true" />
    <inkscape:path-effect
       is_visible="true"
       id="path-effect4626"
       effect="spiro" />
    <inkscape:path-effect
       effect="spiro"
       id="path-effect3852"
       is_visible="true" />
  </defs>
  <sodipodi:namedview
     id="base"
     pagecolor="#1d6a76"
     bordercolor="#666666"
     borderopacity="1.0"
     inkscape:pageopacity="0"
     inkscape:pageshadow="2"
     inkscape:zoom="3.959798"
     inkscape:cx="-1.8005217"
     inkscape:cy="50.24841"
     inkscape:document-units="px"
     inkscape:current-layer="layer2"
     showgrid="false"
     inkscape:window-width="2560"
     inkscape:window-height="1058"
     inkscape:window-x="-8"
     inkscape:window-y="-8"
     inkscape:window-maximized="1" />
  <metadata
     id="metadata7">
    <rdf:RDF>
      <cc:Work
         rdf:about="">
        <dc:format>image/svg+xml</dc:format>
        <dc:type
           rdf:resource="http://purl.org/dc/dcmitype/StillImage" />
        <dc:title></dc:title>
      </cc:Work>
    </rdf:RDF>
  </metadata>
  <g
     inkscape:label="Layer 1"
     inkscape:groupmode="layer"
     id="layer1"
     transform="translate(0,-952.36218)"
     sodipodi:insensitive="true"
     style="display:none">
    <path
       sodipodi:type="arc"
       style="fill:none;stroke:#ffffff;stroke-width:3.07261586;stroke-linecap:round;stroke-linejoin:round;stroke-miterlimit:4;stroke-opacity:1;stroke-dasharray:none"
       id="path4628"
       sodipodi:cx="48.739861"
       sodipodi:cy="49.997448"
       sodipodi:rx="30.557114"
       sodipodi:ry="30.557114"
       d="m 79.296974,49.997448 a 30.557114,30.557114 0 1 1 -61.114227,0 30.557114,30.557114 0 1 1 61.114227,0 z"
       transform="matrix(0.97636673,0,0,0.97636673,2.4120218,953.54633)" />
    <path
       style="font-size:medium;font-style:normal;font-variant:normal;font-weight:normal;font-stretch:normal;text-indent:0;text-align:start;text-decoration:none;line-height:normal;letter-spacing:normal;word-spacing:normal;text-transform:none;direction:ltr;block-progression:tb;writing-mode:lr-tb;text-anchor:start;baseline-shift:baseline;color:#000000;fill:#000000;fill-opacity:1;fill-rule:nonzero;stroke:none;stroke-width:1.9927007;marker:none;visibility:visible;display:inline;overflow:visible;enable-background:accumulate;font-family:Sans;-inkscape-font-specification:Sans"
       d="m 49.875,0.96875 a 0.99644998,0.99644998 0 0 0 -0.875,1 L 49,28.125 a 1.1891186,1.1891186 0 0 1 0.25,0.65625 1.1872214,1.1872214 0 0 1 0,0.125 l 0,39.1875 a 1.187475,1.187475 0 0 1 -0.25,0.75 L 49,98 a 1,1 0 0 0 2,0 l 0,-29.0625 a 1.187475,1.187475 0 0 1 -0.3125,-0.84375 l 0,-39.1875 A 1.1891186,1.1891186 0 0 1 51,28.03125 l 0,-26.0625 a 0.99644998,0.99644998 0 0 0 -1.125,-1 z"
       transform="translate(0,952.36218)"
       id="path3850"
       inkscape:connector-curvature="0" />
    <path
       style="font-size:medium;font-style:normal;font-variant:normal;font-weight:normal;font-stretch:normal;text-indent:0;text-align:start;text-decoration:none;line-height:normal;letter-spacing:normal;word-spacing:normal;text-transform:none;direction:ltr;block-progression:tb;writing-mode:lr-tb;text-anchor:start;baseline-shift:baseline;color:#000000;fill:#000000;fill-opacity:1;fill-rule:nonzero;stroke:none;stroke-width:1.9927007;marker:none;visibility:visible;display:inline;overflow:visible;enable-background:accumulate;font-family:Sans;-inkscape-font-specification:Sans"
       d="M 1.78125,49 A 0.99644998,0.99644998 0 0 0 2,50.96875 l 96,0 A 0.99644998,0.99644998 0 1 0 98,49 l -27.34375,0 a 1.187475,1.187475 0 0 1 -1.0625,0.65625 l -39.1875,0 A 1.1891186,1.1891186 0 0 1 29.28125,49 L 2,49 a 0.99644998,0.99644998 0 0 0 -0.21875,0 z"
       transform="translate(0,952.36218)"
       id="path4624"
       inkscape:connector-curvature="0" />
  </g>
  <g
     inkscape:groupmode="layer"
     id="layer2"
     inkscape:label="Layer">
    <path
       sodipodi:type="arc"
       style="fill:none;stroke:#000000;stroke-width:10.44689465;stroke-linecap:round;stroke-linejoin:round;stroke-miterlimit:4;stroke-opacity:1;stroke-dasharray:none"
       id="path3783"
       sodipodi:cx="48.739861"
       sodipodi:cy="49.997448"
       sodipodi:rx="30.557114"
       sodipodi:ry="30.557114"
       d="m 79.296974,49.997448 a 30.557114,30.557114 0 1 1 -61.114227,0 30.557114,30.557114 0 1 1 61.114227,0 z"
       transform="matrix(1.0398884,0,0,1.0398884,-0.68401827,-1.991769)" />
    <path
       transform="matrix(0.81403342,0,0,0.81403342,10.324125,9.300407)"
       d="m 79.296974,49.997448 a 30.557114,30.557114 0 1 1 -61.114227,0 30.557114,30.557114 0 1 1 61.114227,0 z"
       sodipodi:ry="30.557114"
       sodipodi:rx="30.557114"
       sodipodi:cy="49.997448"
       sodipodi:cx="48.739861"
       id="path3781"
       style="fill:none;stroke:#000000;stroke-width:10.44689465;stroke-linecap:round;stroke-linejoin:round;stroke-miterlimit:4;stroke-opacity:1;stroke-dasharray:none"
       sodipodi:type="arc" />
    <path
       sodipodi:type="arc"
       style="fill:none;stroke:#ffffff;stroke-width:10.44689465;stroke-linecap:round;stroke-linejoin:round;stroke-miterlimit:4;stroke-opacity:1;stroke-dasharray:none"
       id="path4628-1"
       sodipodi:cx="48.739861"
       sodipodi:cy="49.997448"
       sodipodi:rx="30.557114"
       sodipodi:ry="30.557114"
       d="m 79.296974,49.997448 a 30.557114,30.557114 0 1 1 -61.114227,0 30.557114,30.557114 0 1 1 61.114227,0 z"
       transform="matrix(0.91990297,0,0,0.91990297,5.1640577,4.0071992)" />
    <path
       inkscape:connector-curvature="0"
       style="font-size:medium;font-style:normal;font-variant:normal;font-weight:normal;font-stretch:normal;text-indent:0;text-align:start;text-decoration:none;line-height:normal;letter-spacing:normal;word-spacing:normal;text-transform:none;direction:ltr;block-progression:tb;writing-mode:lr-tb;text-anchor:start;baseline-shift:baseline;color:#000000;fill:#000000;fill-opacity:1;fill-rule:nonzero;stroke:none;stroke-width:1.9927007;marker:none;visibility:visible;display:inline;overflow:visible;enable-background:accumulate;font-family:Sans;-inkscape-font-specification:Sans"
       d="m 49.559331,0.98793862 c -1.696422,0.0590634 -3.1034,0.51519608 -3.084582,0.99999998 1.610324,31.9983374 0,64.0215774 0,96.0312504 0,0.523599 1.679426,1 3.525237,1 1.845812,0 3.525238,-0.476401 3.525238,-1 -1.80152,-32.053109 0,-64.019052 0,-96.0312504 0.02397,-0.5686552 -1.977877,-1.07340674 -3.965893,-0.99999998 z"
       id="path3850-7"
       sodipodi:nodetypes="cccsccc" />
    <path
       inkscape:connector-curvature="0"
       style="font-size:medium;font-style:normal;font-variant:normal;font-weight:normal;font-stretch:normal;text-indent:0;text-align:start;text-decoration:none;line-height:normal;letter-spacing:normal;word-spacing:normal;text-transform:none;direction:ltr;block-progression:tb;writing-mode:lr-tb;text-anchor:start;baseline-shift:baseline;color:#000000;fill:#000000;fill-opacity:1;fill-rule:nonzero;stroke:none;stroke-width:1.9927007;marker:none;visibility:visible;display:inline;overflow:visible;enable-background:accumulate;font-family:Sans;-inkscape-font-specification:Sans"
       d="m 1.7039213,46.766374 c -0.4734597,0.348788 -0.82589115,1.971261 -0.77230766,3.555437 0.0535835,1.584172 0.50583846,2.91294 0.99105766,2.911816 l 95.9999997,0 C 98.489222,53.526022 99.073775,51.883926 99.073775,50 c 0,-1.883925 -0.584553,-3.526023 -1.151104,-3.233626 -32.160799,0.877543 -63.981987,0 -95.9999997,0 -0.072622,-0.02627 -0.1461276,-0.02627 -0.21875,0 z"
       id="path4624-4"
       sodipodi:nodetypes="csccsccc" />
  </g>
</svg>

<?xml version="1.0" encoding="UTF-8" standalone="no"?>
<!-- Created with Inkscape (http://www.inkscape.org/) -->

<svg
   xmlns:dc="http://purl.org/dc/elements/1.1/"
   xmlns:cc="http://creativecommons.org/ns#"
   xmlns:rdf="http://www.w3.org/1999/02/22-rdf-syntax-ns#"
   xmlns:svg="http://www.w3.org/2000/svg"
   xmlns="http://www.w3.org/2000/svg"
   xmlns:sodipodi="http://sodipodi.sourceforge.net/DTD/sodipodi-0.dtd"
   xmlns:inkscape="http://www.inkscape.org/namespaces/inkscape"
   width="100"
   height="100"
   id="svg2"
   version="1.1"
   inkscape:version="0.48.4 r9939"
   inkscape:export-filename="C:\Users\antoinep\Desktop\mobileMaster\app\images\reticle@x2.png"
   inkscape:export-xdpi="180"
   inkscape:export-ydpi="180"
   sodipodi:docname="New document 1">
  <defs
     id="defs4">
    <inkscape:path-effect
       effect="spiro"
       id="path-effect4632"
       is_visible="true" />
    <inkscape:path-effect
       is_visible="true"
       id="path-effect4626"
       effect="spiro" />
    <inkscape:path-effect
       effect="spiro"
       id="path-effect3852"
       is_visible="true" />
  </defs>
  <sodipodi:namedview
     id="base"
     pagecolor="#def7df"
     bordercolor="#666666"
     borderopacity="1.0"
     inkscape:pageopacity="0"
     inkscape:pageshadow="2"
     inkscape:zoom="15.839192"
     inkscape:cx="60.176621"
     inkscape:cy="50.067571"
     inkscape:document-units="px"
     inkscape:current-layer="layer1"
     showgrid="false"
     inkscape:window-width="2560"
     inkscape:window-height="1058"
     inkscape:window-x="-8"
     inkscape:window-y="-8"
     inkscape:window-maximized="1" />
  <metadata
     id="metadata7">
    <rdf:RDF>
      <cc:Work
         rdf:about="">
        <dc:format>image/svg+xml</dc:format>
        <dc:type
           rdf:resource="http://purl.org/dc/dcmitype/StillImage" />
        <dc:title></dc:title>
      </cc:Work>
    </rdf:RDF>
  </metadata>
  <g
     inkscape:label="Layer 1"
     inkscape:groupmode="layer"
     id="layer1"
     transform="translate(0,-952.36218)">
    <path
       sodipodi:type="arc"
       style="fill:none;stroke:#ffffff;stroke-width:3.07261595999999980;stroke-linecap:round;stroke-linejoin:round;stroke-miterlimit:4;stroke-opacity:1;stroke-dasharray:none"
       id="path4628"
       sodipodi:cx="48.739861"
       sodipodi:cy="49.997448"
       sodipodi:rx="30.557114"
       sodipodi:ry="30.557114"
       d="m 79.296974,49.997448 a 30.557114,30.557114 0 1 1 -61.114227,0 30.557114,30.557114 0 1 1 61.114227,0 z"
       transform="matrix(0.97636673,0,0,0.97636673,2.4120218,953.54633)" />
    <path
       style="font-size:medium;font-style:normal;font-variant:normal;font-weight:normal;font-stretch:normal;text-indent:0;text-align:start;text-decoration:none;line-height:normal;letter-spacing:normal;word-spacing:normal;text-transform:none;direction:ltr;block-progression:tb;writing-mode:lr-tb;text-anchor:start;baseline-shift:baseline;color:#000000;fill:#000000;fill-opacity:1;fill-rule:nonzero;stroke:none;stroke-width:1.9927007;marker:none;visibility:visible;display:inline;overflow:visible;enable-background:accumulate;font-family:Sans;-inkscape-font-specification:Sans"
       d="M 49.875 0.96875 A 0.99644998 0.99644998 0 0 0 49 1.96875 L 49 28.125 A 1.1891186 1.1891186 0 0 1 49.25 28.78125 A 1.1872214 1.1872214 0 0 1 49.25 28.90625 L 49.25 68.09375 A 1.187475 1.187475 0 0 1 49 68.84375 L 49 98 A 1 1 0 0 0 51 98 L 51 68.9375 A 1.187475 1.187475 0 0 1 50.6875 68.09375 L 50.6875 28.90625 A 1.1891186 1.1891186 0 0 1 51 28.03125 L 51 1.96875 A 0.99644998 0.99644998 0 0 0 49.875 0.96875 z "
       transform="translate(0,952.36218)"
       id="path3850" />
    <path
       style="font-size:medium;font-style:normal;font-variant:normal;font-weight:normal;font-stretch:normal;text-indent:0;text-align:start;text-decoration:none;line-height:normal;letter-spacing:normal;word-spacing:normal;text-transform:none;direction:ltr;block-progression:tb;writing-mode:lr-tb;text-anchor:start;baseline-shift:baseline;color:#000000;fill:#000000;fill-opacity:1;fill-rule:nonzero;stroke:none;stroke-width:1.9927007;marker:none;visibility:visible;display:inline;overflow:visible;enable-background:accumulate;font-family:Sans;-inkscape-font-specification:Sans"
       d="M 1.78125 49 A 0.99644998 0.99644998 0 0 0 2 50.96875 L 98 50.96875 A 0.99644998 0.99644998 0 1 0 98 49 L 70.65625 49 A 1.187475 1.187475 0 0 1 69.59375 49.65625 L 30.40625 49.65625 A 1.1891186 1.1891186 0 0 1 29.28125 49 L 2 49 A 0.99644998 0.99644998 0 0 0 1.78125 49 z "
       transform="translate(0,952.36218)"
       id="path4624" />
  </g>
</svg>
